icons/chevron-square-down.svg

<svg width="24" height="24" viewBox="0 0 24 24" fill="none" xmlns="http://www.w3.org/2000/svg">
<path fill-rule="evenodd" clip-rule="evenodd" d="M9 3.75C6.11421 3.75 3.75 6.11421 3.75 9V15C3.75 17.8858 6.11421 20.25 9 20.25H15C17.8858 20.25 20.25 17.8858 20.25 15V9C20.25 6.11421 17.8858 3.75 15 3.75H9ZM2.25 9C2.25 5.28579 5.28579 2.25 9 2.25H15C18.7142 2.25 21.75 5.28579 21.75 9V15C21.75 18.7142 18.7142 21.75 15 21.75H9C5.28579 21.75 2.25 18.7142 2.25 15V9Z" fill="black"/>
<path fill-rule="evenodd" clip-rule="evenodd" d="M7.81965 9.75727C8.11254 9.46437 8.58741 9.46437 8.88031 9.75727L12 12.8769L15.1196 9.75727C15.4125 9.46437 15.8874 9.46437 16.1803 9.75727C16.4732 10.0502 16.4732 10.525 16.1803 10.8179L12.9803 14.0179C12.7155 14.2827 12.3577 14.4626 11.9625 14.4626C11.5794 14.4626 11.2195 14.2903 10.978 13.9763L7.81965 10.8179C7.52675 10.525 7.52675 10.0502 7.81965 9.75727ZM11.8992 12.9744C11.8992 12.9744 11.8997 12.974 11.9008 12.9735L11.8992 12.9744Z" fill="black"/>
</svg>

<svg xmlns="http://www.w3.org/2000/svg" fill="none" viewBox="0 0 24 24">
  <path fill="#000" fill-rule="evenodd" d="M9 3.75C6.114 3.75 3.75 6.114 3.75 9v6c0 2.886 2.364 5.25 5.25 5.25h6c2.886 0 5.25-2.364 5.25-5.25V9c0-2.886-2.364-5.25-5.25-5.25H9ZM2.25 9c0-3.714 3.036-6.75 6.75-6.75h6c3.714 0 6.75 3.036 6.75 6.75v6c0 3.714-3.036 6.75-6.75 6.75H9c-3.714 0-6.75-3.036-6.75-6.75V9Z" clip-rule="evenodd"/>
  <path fill="#000" fill-rule="evenodd" d="M7.82 9.757a.75.75 0 0 1 1.06 0l3.12 3.12 3.12-3.12a.75.75 0 0 1 1.06 1.06l-3.2 3.2a1.45 1.45 0 0 1-1.018.446c-.383 0-.742-.173-.984-.487L7.82 10.818a.75.75 0 0 1 0-1.06Zm4.08 3.217Z" clip-rule="evenodd"/>
</svg>
